X:4050
T:Old Lancaster Hornpipe
A:North-West
L:1/4
M:3/2
O:England
R:Triple Hornpipe
Z:Richard Robinson 
%%TUNEURL: http://www.leeds.ac.uk/music/Info/RRTuneBk/gettune/00000632.html
%%ID:00000632
K:D
BAG | F>ED fed | eA2 BAG | F>ED fed/c/ | d3 :|
|:BAG | FAG BA/B/c/d/|eE2 BAG |FAG BAB/c/ |d3:|
|:fga | f>ed fed | ce2 fga | f>ed fed/c/ | d3 :|
